X: 196
T:Domine ne in furore
N: Derived from Jos1608-Domine_ne_in_furore.krn
C: Josquin des Prez
%%abc-version 2.0
%%abcx-abcm2ps-target-version 5.9.1 (29 Sep 2008)
%%abc-creator hum2abc beta
%%abcx-conversion-date 2019/02/12 16:15:47
%%abc-edited-by Jesse Rodin
%%abc-edited-by Megan K. Eagen 22/08/2012
%%abcx-initial-encoding-date 2012/08/22/
%%humdrum-veritas 3234533470
%%humdrum-veritas-data 445223195
%%linebreak <none>
%%barnumbers 0
L: 1/4
M: 2/1
Q: 1/2=120
%%staves [1 2 3 4]
V: 1 clef=treble
V: 2 clef=treble-8
V: 3 clef=treble-8
V: 4 clef=bass
K: C
[V:1] E6E2 | 
[V:2] z8 | 
[V:3] z8 | 
[V:4] z8 | 
[V:1] E4z4 | 
[V:2] A6A2 | 
[V:3] z8 | 
[V:4] z8 | 
[V:1] A6A2 | 
[V:2] A4z4 | 
[V:3] z8 | 
[V:4] z8 | 
[V:1] A4z2A2 | 
[V:2] d6d2 | 
[V:3] z8 | 
[V:4] z8 | 
[V:1] A2B2c2A2 | 
[V:2] d4z2d2 | 
[V:3] z8 | 
[V:4] z8 | 
[V:1] B4A4 | 
[V:2] d2e2f2d2 | 
[V:3] z8 | 
[V:4] z8 | 
[V:1] c4B2A2- | 
[V:2] e4d4 | 
[V:3] z8 | 
[V:4] z8 | 
[V:1] A2GFG2A2 | 
[V:2] f4e2d2- | 
[V:3] z8 | 
[V:4] z8 | 
[V:1] DEFGABc2 | 
[V:2] dcdef2e2- | 
[V:3] z8 | 
[V:4] z8 | 
[V:1] B2A4G2 | 
[V:2] edc2B4 | 
[V:3] E6E2 | 
[V:4] z8 | 
[V:1] c3BAGA2- | 
[V:2] ABcdecf2 | 
[V:3] E4z4 | 
[V:4] A,,6A,,2 | 
[V:1] A2GFE4 | 
[V:2] e2d4^c2 | 
[V:3] A6A2 | 
[V:4] A,,4z4 | 
[V:1] D4z4 | 
[V:2] d8 | 
[V:3] A4z2A2 | 
[V:4] D,6D,2 | 
[V:1] z8 | 
[V:2] z8 | 
[V:3] A2B2c2A2 | 
[V:4] D,4z2D,2 | 
[V:1] z8 | 
[V:2] z8 | 
[V:3] B4A4 | 
[V:4] D,2E,2F,2D,2 | 
[V:1] z8 | 
[V:2] z8 | 
[V:3] c4B2A2- | 
[V:4] E,4D,4 | 
[V:1] z8 | 
[V:2] z8 | 
[V:3] A2GFG2A2 | 
[V:4] F,4E,2D,2- | 
[V:1] z8 | 
[V:2] z8 | 
[V:3] DEFGABc2 | 
[V:4] D,C,D,E,F,2E,2- | 
[V:1] z8 | 
[V:2] z8 | 
[V:3] B2A4^G2 | 
[V:4] E,D,C,2B,,4 | 
[V:1] z4G4- | 
[V:2] z4e4- | 
[V:3] A4z4 | 
[V:4] A,,4E,4- | 
[V:1] G4G4 | 
[V:2] e4e4- | 
[V:3] B8 | 
[V:4] E,4E,4- | 
[V:1] G4G2G2 | 
[V:2] e4d4 | 
[V:3] B8 | 
[V:4] E,4G,4 | 
[V:1] A8 | 
[V:2] f6c2 | 
[V:3] d4c2A2 | 
[V:4] F,2D,2F,4 | 
[V:1] G8 | 
[V:2] e4d4- | 
[V:3] c4B2B2- | 
[V:4] E,2E,2G,2G,2 | 
[V:1] z2A4G2 | 
[V:2] d4z2e2- | 
[V:3] BA/G/A2B4 | 
[V:4] F,4E,4 | 
[V:1] E2F3EE2 | 
[V:2] e2d2B2c2- | 
[V:3] z8 | 
[V:4] z4z2A,2- | 
[V:1] ED/C/D2E2A2- | 
[V:2] c2BAA2c2- | 
[V:3] z8 | 
[V:4] A,2G,2E,2F,2- | 
[V:1] A2G2E2F2- | 
[V:2] cB/A/B2c2A2 | 
[V:3] z2e4d2 | 
[V:4] F,2E,D,C,2D,2 | 
[V:1] FEG4F2 | 
[V:2] z2e4d2 | 
[V:3] B2c3BA2- | 
[V:4] E,4C,2D,2 | 
[V:1] E4z2A2- | 
[V:2] B2c3BAG | 
[V:3] A2G2A4 | 
[V:4] E,4A,,2F,2- | 
[V:1] A2G2E2F2- | 
[V:2] F2G2A2FG | 
[V:3] z8 | 
[V:4] F,2E,2C,2D,2- | 
[V:1] FEE4D2 | 
[V:2] ABc4BA | 
[V:3] A6A2 | 
[V:4] D,2C,2F,4 | 
[V:1] E8 | 
[V:2] G4z4 | 
[V:3] B4G4 | 
[V:4] E,8 | 
[V:1] z4E4- | 
[V:2] z8 | 
[V:3] c6B2 | 
[V:4] A,,4z4 | 
[V:1] E2E2F4 | 
[V:2] z8 | 
[V:3] A2G2A4 | 
[V:4] z8 | 
[V:1] D4G4- | 
[V:2] z8 | 
[V:3] F2G3FED | 
[V:4] z8 | 
[V:1] G2F2E2D2 | 
[V:2] z4B4- | 
[V:3] E2F2G4- | 
[V:4] z8 | 
[V:1] E8 | 
[V:2] B2B2c4 | 
[V:3] G4z4 | 
[V:4] E,6E,2 | 
[V:1] z8 | 
[V:2] A4d4- | 
[V:3] z8 | 
[V:4] F,4D,4 | 
[V:1] z8 | 
[V:2] d2c2B2A2 | 
[V:3] z8 | 
[V:4] G,6F,2 | 
[V:1] z4G4- | 
[V:2] B8 | 
[V:3] z4e4- | 
[V:4] E,2D,2E,4- | 
[V:1] G2G2G4 | 
[V:2] z8 | 
[V:3] e2e2e4 | 
[V:4] E,4z4 | 
[V:1] A4F2G2- | 
[V:2] z8 | 
[V:3] c2d3cBA | 
[V:4] z8 | 
[V:1] GFEDE4 | 
[V:2] z8 | 
[V:3] B4c4 | 
[V:4] z8 | 
[V:1] D8 | 
[V:2] G4G2G2 | 
[V:3] B4z2d2- | 
[V:4] z4G,4- | 
[V:1] z2G2G2G2 | 
[V:2] B4B4 | 
[V:3] d2d2d2B2 | 
[V:4] G,2G,2G,4 | 
[V:1] A4G2A2- | 
[V:2] A2c3BAG | 
[V:3] c3de2d2- | 
[V:4] F,4E,2F,2- | 
[V:1] AGFEF4 | 
[V:2] F2G4F2 | 
[V:3] dcc4B2 | 
[V:4] F,E,D,C,D,4 | 
[V:1] E8- | 
[V:2] G8- | 
[V:3] c4z2B2 | 
[V:4] C,3D,E,4- | 
[V:1] E8 | 
[V:2] G8 | 
[V:3] B2G2B2c2 | 
[V:4] E,4z2E,2 | 
[V:1] z4z2E2 | 
[V:2] z2A2B2G2 | 
[V:3] A2d3cB2 | 
[V:4] F,2D,2G,3F, | 
[V:1] F2D2G4- | 
[V:2] d4e4- | 
[V:3] A2A2B2G2 | 
[V:4] D,2F,2E,4 | 
[V:1] G2E2E4 | 
[V:2] e2c2c4 | 
[V:3] c6A2 | 
[V:4] z8 | 
[V:1] z8 | 
[V:2] c2c2A2d2- | 
[V:3] A4z2A2 | 
[V:4] z2F,2F,2D,2 | 
[V:1] z2E2F2D2 | 
[V:2] d2cBc2d2 | 
[V:3] B2G2A4 | 
[V:4] G,4F,4 | 
[V:1] G6E2 | 
[V:2] e8 | 
[V:3] B4G4- | 
[V:4] E,8 | 
[V:1] E4G4- | 
[V:2] z4e4- | 
[V:3] G4c4- | 
[V:4] C,6C,2 | 
[V:1] G2G2G4 | 
[V:2] e2e2e4 | 
[V:3] c2c2c4 | 
[V:4] C,8 | 
[V:1] A4B4 | 
[V:2] c2d4e2- | 
[V:3] z8 | 
[V:4] z8 | 
[V:1] c3BA2G2 | 
[V:2] e2ABcde2- | 
[V:3] z8 | 
[V:4] z8 | 
[V:1] F4E4- | 
[V:2] e2d2e4 | 
[V:3] z4z2G2- | 
[V:4] z4C,4- | 
[V:1] E4z4 | 
[V:2] z2c3cc2 | 
[V:3] G2G2G2E2 | 
[V:4] C,2C,2C,4 | 
[V:1] z8 | 
[V:2] A2B4c2- | 
[V:3] F4G4 | 
[V:4] D,4E,4 | 
[V:1] z8 | 
[V:2] cAc2B2A2- | 
[V:3] A3GF2E2- | 
[V:4] F,3E,D,2C,2 | 
[V:1] z8 | 
[V:2] A2^G2A4 | 
[V:3] E2D2E4 | 
[V:4] B,,4A,,4- | 
[V:1] E6E2 | 
[V:2] c6c2 | 
[V:3] A6G2 | 
[V:4] A,,4C,4- | 
[V:1] E4E4- | 
[V:2] c4z2G2 | 
[V:3] G4z4 | 
[V:4] C,2C,2C,4 | 
[V:1] E4D4 | 
[V:2] A2c4B2 | 
[V:3] z4z2G2 | 
[V:4] C,4G,4 | 
[V:1] F8 | 
[V:2] c4d4 | 
[V:3] A2c4B2 | 
[V:4] F,3E,D,4 | 
[V:1] E8 | 
[V:2] G4z4 | 
[V:3] c2G2A2c2- | 
[V:4] C,8- | 
[V:1] z4E4 | 
[V:2] G4c4 | 
[V:3] c2BAG2A2 | 
[V:4] C,8 | 
[V:1] G6G2 | 
[V:2] c2c2B4- | 
[V:3] E8 | 
[V:4] z2C,2G,4 | 
[V:1] G4A4 | 
[V:2] B4ABcd | 
[V:3] z2G2c4 | 
[V:4] G,2G,2F,4 | 
[V:1] G2A3^G/^F/G2 | 
[V:2] e8 | 
[V:3] c2c2B4 | 
[V:4] E,4z2E,2 | 
[V:1] A4z4 | 
[V:2] z4z2d2 | 
[V:3] A2A2B2G2 | 
[V:4] F,2D,2G,3F, | 
[V:1] z4z2A2 | 
[V:2] e2c2f4 | 
[V:3] c6d2- | 
[V:4] E,2F,4D,2 | 
[V:1] B2G2c3B | 
[V:2] g4c2e2- | 
[V:3] d2e3dc2- | 
[V:4] G,4A,3G, | 
[V:1] G2A4GF | 
[V:2] edc4B2 | 
[V:3] cBAGF4 | 
[V:4] E,2F,2D,4 | 
[V:1] E8 | 
[V:2] c8 | 
[V:3] G3FG2A2- | 
[V:4] C,8 | 
[V:1] E8 | 
[V:2] c4G4 | 
[V:3] A2GFE4 | 
[V:4] C,8 | 
[V:1] D4F4- | 
[V:2] _B6A2 | 
[V:3] G4F4 | 
[V:4] G,,4D,4- | 
[V:1] F2E2E4- | 
[V:2] F2c4BA | 
[V:3] A6G2 | 
[V:4] D,2C,2C,4 | 
[V:1] E4C4 | 
[V:2] B4A4 | 
[V:3] G4z4 | 
[V:4] E,4F,4- | 
[V:1] D4E4 | 
[V:2] z4G4 | 
[V:3] A4B2c2 | 
[V:4] F,4E,4 | 
[V:1] F8 | 
[V:2] A4B4 | 
[V:3] d4D2F2 | 
[V:4] D,8 | 
[V:1] E8- | 
[V:2] c8 | 
[V:3] G2G2A4 | 
[V:4] C,4A,,4 | 
[V:1] E8 | 
[V:2] B8 | 
[V:3] G8- | 
[V:4] E,8- | 
[V:1] z2G4G2 | 
[V:2] z2e4e2 | 
[V:3] G8 | 
[V:4] E,8 | 
[V:1] A2B2c2A2 | 
[V:2] f2d2e2f2 | 
[V:3] z8 | 
[V:4] z8 | 
[V:1] B8 | 
[V:2] g8 | 
[V:3] z2G4G2 | 
[V:4] z2E,4E,2 | 
[V:1] z8 | 
[V:2] z8 | 
[V:3] A2B2c2A2 | 
[V:4] F,2D,2E,2F,2 | 
[V:1] z8 | 
[V:2] z4d4 | 
[V:3] B4z2B2 | 
[V:4] G,8 | 
[V:1] A4c4 | 
[V:2] f4e2c2 | 
[V:3] d4c2A2 | 
[V:4] z2D,2A,4 | 
[V:1] B2G2A3B | 
[V:2] d3ef4 | 
[V:3] B3cd4 | 
[V:4] G,3F,D,2D,2 | 
[V:1] c4B4 | 
[V:2] e2c2d2e2 | 
[V:3] c2A2B3c | 
[V:4] A,4G,4 | 
[V:1] A2c4BA | 
[V:2] f4g3f | 
[V:3] d2c2e2dc | 
[V:4] F,3E,C,3D, | 
[V:1] G2A4^G2 | 
[V:2] e2d2e4- | 
[V:3] B2A2B4 | 
[V:4] E,2F,2E,4 | 
[V:1] A8 | 
[V:2] e4c4- | 
[V:3] A8 | 
[V:4] A,,8 | 
[V:1] A8 | 
[V:2] c4A4 | 
[V:3] z4c4- | 
[V:4] F,8 | 
[V:1] E4G4 | 
[V:2] c4B4 | 
[V:3] c4G4 | 
[V:4] C,4E,4 | 
[V:1] F8 | 
[V:2] z2d2d2d2 | 
[V:3] _B4A4 | 
[V:4] D,8 | 
[V:1] z2G2G2G2 | 
[V:2] e3dc2B2 | 
[V:3] z8 | 
[V:4] z8 | 
[V:1] A3GF2E2 | 
[V:2] A2d3cc2- | 
[V:3] z8 | 
[V:4] z8 | 
[V:1] D2G3FDE | 
[V:2] c2BAB4 | 
[V:3] z8 | 
[V:4] z2G,2G,2G,2 | 
[V:1] FGA3GG2- | 
[V:2] c2F4G2 | 
[V:3] z2c2c2c2 | 
[V:4] A,3G,F,2E,2 | 
[V:1] G2^F2G4 | 
[V:2] A4G4- | 
[V:3] d3cB3A | 
[V:4] D,4E,4- | 
[V:1] z8 | 
[V:2] G2A3GG2- | 
[V:3] G2F2E2D2- | 
[V:4] E,2D,2C,2B,,2 | 
[V:1] z8 | 
[V:2] G2^F2G4- | 
[V:3] D2C2D4 | 
[V:4] A,,4G,,4 | 
[V:1] E6E2 | 
[V:2] G4c4- | 
[V:3] z4G4- | 
[V:4] C,6C,2 | 
[V:1] E4E4 | 
[V:2] c2c2c4 | 
[V:3] G2G2G4 | 
[V:4] C,4C,4 | 
[V:1] D2D2F4- | 
[V:2] B4A2A2 | 
[V:3] G4F2F2 | 
[V:4] G,,2G,,2D,4- | 
[V:1] F4E4 | 
[V:2] d4c4 | 
[V:3] A8 | 
[V:4] D,4A,,4 | 
[V:1] z2E4E2 | 
[V:2] z2c2c4 | 
[V:3] G4z2G2 | 
[V:4] z2C,2C,4 | 
[V:1] D2D2F4 | 
[V:2] B4A4 | 
[V:3] G4F2F2 | 
[V:4] G,,2G,,2D,4 | 
[V:1] E8 | 
[V:2] c4B2B2- | 
[V:3] A4G4 | 
[V:4] A,,4E,4- | 
[V:1] z2E4E2 | 
[V:2] B2B2c4 | 
[V:3] z2G2G2A2- | 
[V:4] E,4C,4 | 
[V:1] F4D2E2- | 
[V:2] A4B4 | 
[V:3] A2F2G4 | 
[V:4] D,4G,,4 | 
[V:1] EDCB,C4 | 
[V:2] A4z2A2 | 
[V:3] E6DC | 
[V:4] A,,8 | 
[V:1] D8- | 
[V:2] B2G2B4- | 
[V:3] G8 | 
[V:4] G,,4z2G,2 | 
[V:1] D8- | 
[V:2] B2A2G4 | 
[V:3] z4z2G2 | 
[V:4] G,2F,2_B,4- | 
[V:1] D8 | 
[V:2] z8 | 
[V:3] G2F2_B4- | 
[V:4] B,2A,2G,4- | 
[V:1] z2D2D2C2 | 
[V:2] z8 | 
[V:3] B2A2G3F/G/ | 
[V:4] G,2F,2E,4 | 
[V:1] F6E2 | 
[V:2] z2d2d2c2 | 
[V:3] A2_B2A4 | 
[V:4] D,4z4 | 
[V:1] DEFGABc2- | 
[V:2] f6e2 | 
[V:3] D3EF2G2 | 
[V:4] z2D,2D,2C,2 | 
[V:1] cBAGFDG2- | 
[V:2] c2f4e2 | 
[V:3] A4B2c2 | 
[V:4] F,3E,D,2C,2 | 
[V:1] G2F2G2D2 | 
[V:2] d3cB4 | 
[V:3] A4G4 | 
[V:4] D,4G,,4- | 
[V:1] G3AB2A2- | 
[V:2] z2G2d4 | 
[V:3] D2G3FD2 | 
[V:4] G,,4z4 | 
[V:1] A2GFE4- | 
[V:2] d4c2A2 | 
[V:3] F2G2A4 | 
[V:4] z8 | 
[V:1] E4D4 | 
[V:2] c2c2B4 | 
[V:3] G4z2G2 | 
[V:4] C,4G,4 | 
[V:1] z2D2A4 | 
[V:2] B4A4- | 
[V:3] d4d4 | 
[V:4] G,4F,2D,2 | 
[V:1] A4G2E2 | 
[V:2] A4z4 | 
[V:3] c2A2c2c2 | 
[V:4] F,2F,2E,4 | 
[V:1] G2G2F4 | 
[V:2] z4z2d2 | 
[V:3] B4B4 | 
[V:4] E,4D,4- | 
[V:1] F4E4- | 
[V:2] d4c2A2 | 
[V:3] A8 | 
[V:4] D,4z2A,2 | 
[V:1] E4z4 | 
[V:2] c2c2B4 | 
[V:3] z2e2e4 | 
[V:4] A,4G,2E,2 | 
[V:1] z4z2A2 | 
[V:2] B4A4- | 
[V:3] d2B2d2d2 | 
[V:4] G,2G,2F,3E, | 
[V:1] A4G2E2 | 
[V:2] A4z4 | 
[V:3] c4c4 | 
[V:4] F,4E,4 | 
[V:1] G2G2F4 | 
[V:2] e4c4 | 
[V:3] B2G2A2c2- | 
[V:4] E,4F,4 | 
[V:1] F4E4 | 
[V:2] d4G2c2- | 
[V:3] c2B2c3B | 
[V:4] D,4C,2C,2- | 
[V:1] E4F4 | 
[V:2] c2c2B2A2- | 
[V:3] G4z4 | 
[V:4] C,2C,2D,4 | 
[V:1] D4C2c2- | 
[V:2] A^G/^F/^G2A4- | 
[V:3] z4c4- | 
[V:4] B,,4A,,4- | 
[V:1] c2c2B2A2- | 
[V:2] A4z4 | 
[V:3] c2c2d4 | 
[V:4] A,,4z4 | 
[V:1] A^G/^F/G2A4- | 
[V:2] z2d4c2 | 
[V:3] B4A4- | 
[V:4] z8 | 
[V:1] A4z4 | 
[V:2] f4e3d | 
[V:3] A8- | 
[V:4] z2D,4C,2 | 
[V:1] z2A4G2 | 
[V:2] c3B/A/B4 | 
[V:3] A4z4 | 
[V:4] F,4E,4 | 
[V:1] c4B4 | 
[V:2] A2e2d2B2 | 
[V:3] z2A4G2 | 
[V:4] A,,2C,2D,2E,2 | 
[V:1] z2E2F2G2- | 
[V:2] e4d2B2- | 
[V:3] c4B4 | 
[V:4] A,,2C,2D,2E,2- | 
[V:1] GFEDE2G2- | 
[V:2] B2c4B2 | 
[V:3] G2A4GF | 
[V:4] E,D,C,B,,A,,2E,2- | 
[V:1] G2F3EE2- | 
[V:2] c2d2B2c2- | 
[V:3] G2A2G2E2 | 
[V:4] E,2D,2E,2A,,2 | 
[V:1] E2D2E4- | 
[V:2] c2BAB4 | 
[V:3] F4E4- | 
[V:4] A,6G,F, | 
[V:1] E8- | 
[V:2] z8 | 
[V:3] E4z4 | 
[V:4] G,F,E,D,C,3D, | 
[V:1] E4z4 | 
[V:2] G4B4 | 
[V:3] E4G4 | 
[V:4] E,8 | 
[V:1] E4G4 | 
[V:2] c4B4 | 
[V:3] A4G4 | 
[V:4] z2A,,2E,4 | 
[V:1] A4G2G2 | 
[V:2] z2A2e4 | 
[V:3] z4z2G2 | 
[V:4] F,4E,4 | 
[V:1] A3Bc2A2- | 
[V:2] f4e2c2 | 
[V:3] d4e4 | 
[V:4] z2D,2A,4 | 
[V:1] AG/F/G2A4 | 
[V:2] d3ef2e2- | 
[V:3] d4z2c2- | 
[V:4] _B,4A,4 | 
[V:1] c4B2A2- | 
[V:2] edecdef2- | 
[V:3] c2A2B2c2- | 
[V:4] A,4G,2A,2- | 
[V:1] A2G2A4 | 
[V:2] fee4d2 | 
[V:3] cBB4A2 | 
[V:4] A,G,E,2F,4 | 
[V:1] ^G4z4 | 
[V:2] e4z2e2 | 
[V:3] c3B/A/B4 | 
[V:4] E,8 | 
[V:1] c4c2c2 | 
[V:2] e2e2e4 | 
[V:3] A4z2e2 | 
[V:4] z2A,2A,2A,2 | 
[V:1] c4B4 | 
[V:2] c4g4- | 
[V:3] e2e2e4 | 
[V:4] A,4E,4 | 
[V:1] B6B2 | 
[V:2] g2g2g4 | 
[V:3] B4d4- | 
[V:4] G,6G,2 | 
[V:1] B4A2D2 | 
[V:2] d2G2A2B2 | 
[V:3] d2d2d4 | 
[V:4] G,4D,4 | 
[V:1] E2F2G2F2 | 
[V:2] c2A2G2c2 | 
[V:3] A4z2A2 | 
[V:4] z2D,2E,2F,2 | 
[V:1] D2G3^F/E/F2 | 
[V:2] B2AGA4 | 
[V:3] B2c2d4 | 
[V:4] G,2E,2D,4 | 
[V:1] G2D2E2F2 | 
[V:2] G2B2c2d2 | 
[V:3] B4A4 | 
[V:4] z4z2D,2 | 
[V:1] G2E2D2G2 | 
[V:2] G2g4g2 | 
[V:3] z2G2B2B2 | 
[V:4] E,3F,G,2E,2 | 
[V:1] A2B2c3B | 
[V:2] f4e2c2 | 
[V:3] d4c2A2- | 
[V:4] D,4A,3G, | 
[V:1] A2G2A2c2- | 
[V:2] d2e2f4 | 
[V:3] ABcAd2c2 | 
[V:4] F,2E,2D,2A,2- | 
[V:1] c2B2c2B2 | 
[V:2] e4e4- | 
[V:3] z2G2A2B2 | 
[V:4] A,2E,2A,2G,2 | 
[V:1] G2c4B2 | 
[V:2] e8- | 
[V:3] c4A2B2 | 
[V:4] E,2A,4G,2 | 
[V:1] A4G4- | 
[V:2] e8- | 
[V:3] c6BA | 
[V:4] A,4E,4- | 
[V:1] G8 ||  
[V:2] e8 ||  
[V:3] B4B4 ||  
[V:4] E,8 ||  
[V:1]  [K:C] [K:clef=treble][M:2/1]E4G4- | 
[V:2]  [K:C] [K:clef=treble-8][M:2/1]z8 | 
[V:3]  [K:C] [K:clef=treble-8][M:2/1]z8 | 
[V:4]  [K:C] [K:clef=bass][M:2/1]z8 | 
[V:1] G2A2B4 | 
[V:2] z8 | 
[V:3] z8 | 
[V:4] z8 | 
[V:1] c6B2 | 
[V:2] A4c4- | 
[V:3] z8 | 
[V:4] z8 | 
[V:1] A4G2E2- | 
[V:2] c2d2e4 | 
[V:3] z8 | 
[V:4] z8 | 
[V:1] EFGABcd2- | 
[V:2] g6f2 | 
[V:3] E4G4- | 
[V:4] z8 | 
[V:1] dcc3BB2- | 
[V:2] e4d4 | 
[V:3] G2A2B4 | 
[V:4] z8 | 
[V:1] BAA3GG2 | 
[V:2] e6d2 | 
[V:3] c6B2 | 
[V:4] A,,4C,4- | 
[V:1] GFF2G4 | 
[V:2] c4B4 | 
[V:3] A4G4 | 
[V:4] C,2D,2E,4 | 
[V:1] z2C2D2E2 | 
[V:2] z4z2G2 | 
[V:3] c3BA2G2- | 
[V:4] F,6E,2 | 
[V:1] F3FE2C2 | 
[V:2] A2B2c3c | 
[V:3] G2F2G4 | 
[V:4] D,4C,4 | 
[V:1] D2E2F3F | 
[V:2] B4z4 | 
[V:3] z2G2A2B2 | 
[V:4] z8 | 
[V:1] E4z2E2 | 
[V:2] z4z2G2 | 
[V:3] c3cB4 | 
[V:4] z2C,2D,2E,2 | 
[V:1] C3DEFG2- | 
[V:2] A2B2c3c | 
[V:3] z4G4 | 
[V:4] F,3F,E,2C,D, | 
[V:1] G2FED4- | 
[V:2] B4G2A2 | 
[V:3] G3ABcd2- | 
[V:4] E,F,G,4F,2 | 
[V:1] D2E2F4 | 
[V:2] B2G4F2 | 
[V:3] dcc4B2 | 
[V:4] G,2E,2D,4 | 
[V:1] E8- | 
[V:2] G4G4- | 
[V:3] c8 | 
[V:4] C,8 | 
[V:1] E8 | 
[V:2] G2G2G4 | 
[V:3] c6c2 | 
[V:4] C,6C,2 | 
[V:1] E6E2 | 
[V:2] z2G2A2c2- | 
[V:3] c8 | 
[V:4] C,8 | 
[V:1] E8- | 
[V:2] c2B2A2A2 | 
[V:3] z2G2A2c2- | 
[V:4] z8 | 
[V:1] E8 | 
[V:2] G4z4 | 
[V:3] c2B2A2A2 | 
[V:4] z2G,2A,2C2- | 
[V:1] z2G2A2c2- | 
[V:2] d4e4 | 
[V:3] G4z4 | 
[V:4] C2B,2A,2A,2 | 
[V:1] c2B2A2A2 | 
[V:2] g6f2 | 
[V:3] z2G2A4 | 
[V:4] G,4D,4 | 
[V:1] G4G4 | 
[V:2] e2e2d4 | 
[V:3] c4B2G2 | 
[V:4] E,4G,4 | 
[V:1] A4c4 | 
[V:2] z4c4 | 
[V:3] c3BA2G2 | 
[V:4] F,6E,2 | 
[V:1] B2A4G2 | 
[V:2] d2f2f2e2 | 
[V:3] F4c3B | 
[V:4] D,4C,4 | 
[V:1] F4E4 | 
[V:2] d3cB4 | 
[V:3] AGA4^G2 | 
[V:4] D,4E,4 | 
[V:1] z4E4- | 
[V:2] c4z4 | 
[V:3] A4E4 | 
[V:4] A,,3B,,C,D,E,2- | 
[V:1] E2F2G2E2 | 
[V:2] B6c2 | 
[V:3] z8 | 
[V:4] E,2D,2E,4 | 
[V:1] F2G2A4 | 
[V:2] d2B2c3d | 
[V:3] z4A4- | 
[V:4] z8 | 
[V:1] z8 | 
[V:2] e4z4 | 
[V:3] A2B2c2A2 | 
[V:4] z2E,4F,2 | 
[V:1] z8 | 
[V:2] z8 | 
[V:3] B2c2d4 | 
[V:4] G,2E,2F,2G,2 | 
[V:1] A4A2A2- | 
[V:2] e4e2e2- | 
[V:3] z4c4 | 
[V:4] A,4A,4 | 
[V:1] A2A2c4 | 
[V:2] e2e2e3f | 
[V:3] c2c4c2 | 
[V:4] A,2A,4A,2 | 
[V:1] B4A4 | 
[V:2] g4c2d2 | 
[V:3] d2e2A4 | 
[V:4] G,2E,2F,4 | 
[V:1] G8 | 
[V:2] e8 | 
[V:3] B4B4- | 
[V:4] E,8 | 
[V:1] z4G4- | 
[V:2] z4e4- | 
[V:3] B2B2B4 | 
[V:4] E,6E,2 | 
[V:1] G2G2G4- | 
[V:2] e2e2e4- | 
[V:3] z2B2B2G2 | 
[V:4] E,8 | 
[V:1] G4z4 | 
[V:2] e4z4 | 
[V:3] c4B4 | 
[V:4] z2E,2E,2D,2 | 
[V:1] z8 | 
[V:2] z4z2B2 | 
[V:3] A4G4 | 
[V:4] F,4E,4 | 
[V:1] z4z2E2 | 
[V:2] B2A2c4 | 
[V:3] z2F2A2G2- | 
[V:4] D,4C,3D, | 
[V:1] E2D2F4 | 
[V:2] B4A4 | 
[V:3] GAB2c2d2 | 
[V:4] E,F,G,2F,2D,2 | 
[V:1] E4D4 | 
[V:2] G8 | 
[V:3] B2c4B2 | 
[V:4] E,2C,2G,4 | 
[V:1] C2c2B2A2- | 
[V:2] G6A2 | 
[V:3] e4d3c | 
[V:4] C,D,E,F,G,2F,2 | 
[V:1] AGG4^F2 | 
[V:2] B2c2d4 | 
[V:3] B2AGA4 | 
[V:4] G,2F,E,D,4 | 
[V:1] [M:3/1]G8z4 | 
[V:2] [M:3/1]d8z4 | 
[V:3] [M:3/1]G8z4 | 
[V:4] [M:3/1]G,,8z4 | 
[V:1] G4G4G4 | 
[V:2] d4d4e4 | 
[V:3] B4B4B4 | 
[V:4] G,4G,4G,4 | 
[V:1] A8A4 | 
[V:2] f8f4 | 
[V:3] c8d4 | 
[V:4] F,8D,4 | 
[V:1] c8B4- | 
[V:2] g4g6f2 | 
[V:3] e4e6d2 | 
[V:4] C,6D,2E,2F,2 | 
[V:1] B4A8 | 
[V:2] d4f8 | 
[V:3] B4c4d4 | 
[V:4] G,4F,4D,4 | 
[V:1] G4A8 | 
[V:2] e4c4d4 | 
[V:3] B4A6B2 | 
[V:4] E,4F,8 | 
[V:1] G4F8 | 
[V:2] e4A4B4 | 
[V:3] c4d8 | 
[V:4] E,4D,8 | 
[V:1] E8z4 | 
[V:2] c4G4A4 | 
[V:3] G4c8 | 
[V:4] C,8A,,4 | 
[V:1] E4E4F4 | 
[V:2] B4c4d4 | 
[V:3] G4G4A4 | 
[V:4] E,4E,4D,4 | 
[V:1] G8A4 | 
[V:2] e6d2c4 | 
[V:3] c4C2D2E2F2 | 
[V:4] C,6B,,2A,,4 | 
[V:1] B4c8 | 
[V:2] B4A8 | 
[V:3] G6^FE^F4 | 
[V:4] G,,4A,,8 | 
[V:1] [M:2/1]B8 | 
[V:2] [M:2/1]z2d4d2 | 
[V:3] [M:2/1]G4z2G2- | 
[V:4] [M:2/1]G,,8 | 
[V:1] z2E4E2 | 
[V:2] e4c4 | 
[V:3] G2G2A4 | 
[V:4] C,6C,2 | 
[V:1] F4D4 | 
[V:2] A4B2B2 | 
[V:3] F4G3F | 
[V:4] D,4G,,4 | 
[V:1] E4E2E2 | 
[V:2] c3BG2c2- | 
[V:3] G2A2E2G2- | 
[V:4] C,4C,2C,2 | 
[V:1] F4E4- | 
[V:2] c2B2c2G2 | 
[V:3] G2F2G4 | 
[V:4] D,4C,4- | 
[V:1] E4z2G2 | 
[V:2] A2c3de2- | 
[V:3] z2G2A2c2- | 
[V:4] C,8 | 
[V:1] A2c4B2 | 
[V:2] ede2f2g2 | 
[V:3] cBA4G2 | 
[V:4] z4z2G,2 | 
[V:1] A4G2c2- | 
[V:2] e3dcdef | 
[V:3] c3de2c2 | 
[V:4] A,2C3B,A,2- | 
[V:1] cBB4A2- | 
[V:2] g4e3d | 
[V:3] d4c4 | 
[V:4] A,2G,2A,4 | 
[V:1] A2G2F2E2 | 
[V:2] c3BA2G2 | 
[V:3] z2G2A2c2 | 
[V:4] E,4z2C,2 | 
[V:1] z2C2D2F2- | 
[V:2] A3GFED2 | 
[V:3] B2A3GFE | 
[V:4] D,2F,3E,D,2- | 
[V:1] FEE4D2 | 
[V:2] A6B2 | 
[V:3] D2E2F4 | 
[V:4] D,2C,2D,4 | 
[V:1] E8- | 
[V:2] c4B4 | 
[V:3] E8- | 
[V:4] A,,4z2G,,2 | 
[V:1] E8- | 
[V:2] z2G2A2c2- | 
[V:3] E8- | 
[V:4] A,,2C,3B,,A,,2- | 
[V:1] E8- | 
[V:2] c2B2A4 | 
[V:3] E8- | 
[V:4] A,,2G,,2A,,4 | 
[V:1] E8 |]  
[V:2] ^G8 |]  
[V:3] E8 |]  
[V:4] E,8 |]  



